!!!COM: Anon.
!!!OTL: Minha ma~e, minha ma~ezinha
!!!OTL: Romanceiro Folclorico do Brasil
!!!CNT: Brasil
!!!OCY: Brasil
!!!ODT: <1971///
!!!PSR: Irmaos Vitale
!!!PSP: Sao Paulo, Brasil
!!!PDT: 1950///
!!!PPE: Rossini Tavares de Lima
!!!PPG: page 48
!! Romance: Costureira Ou Modista
!! Place: Araras, Sao Paulo, Brasil
**kern
*clefG2
*k[b-e-a-]
*M3/4
*MM112
16c
16d
=
8.e-
16g
8.c
16d
=
8c
4B-
16d
16e-
=
8.f
16a-
8.d
16e-
=
4.f
16b-
16cc
=
8ff
4ff
12dd-
12cc
12b-
=
8ee-
4cc
8.b-
16a-
=
8.g
16dd
8.cc
16c
=
4.f
==
*-
